public/cluster.svg

<svg width="32" height="32" viewBox="0 0 32 32" fill="none" xmlns="http://www.w3.org/2000/svg">
<g clip-path="url(#clip0_33_173)">
<path d="M20.9235 2.64626e-07H11.0765C9.62187 -0.000317734 8.18138 0.285969 6.83736 0.842505C5.49335 1.39904 4.27215 2.21492 3.24354 3.24354C2.21492 4.27215 1.39904 5.49335 0.842503 6.83736C0.285967 8.18137 -0.000317734 9.62187 2.64627e-07 11.0766V20.9234C0.000641988 23.8609 1.16784 26.6779 3.24495 28.755C5.32207 30.8322 8.13906 31.9994 11.0765 32H20.9235C23.8609 31.9994 26.6779 30.8322 28.755 28.755C30.8322 26.6779 31.9994 23.8609 32 20.9234V11.0766C31.9997 8.13896 30.8326 5.32179 28.7554 3.2446C26.6782 1.16741 23.861 0.000321189 20.9235 2.64626e-07V2.64626e-07Z" fill="url(#paint0_radial_33_173)"/>
<path fill-rule="evenodd" clip-rule="evenodd" d="M18.1676 0H17.7767L13.508 10.6905L1.49107 5.53101C1.42934 5.63631 1.37003 5.7416 1.31073 5.84932L13.3016 11.0001L4.73158 20.7757L0.145226 9.28653C0.105287 9.52859 0.0713963 9.77065 0.0484009 10.0212L4.44054 21.0263L0.171853 22.8732C0.197269 22.9955 0.220262 23.1165 0.242048 23.2375L4.57248 21.3654L8.41512 31.6756C8.55551 31.7107 8.6959 31.7422 8.83872 31.7713L4.92043 21.2453L21.7945 17.1082L16.7284 24.9263L10.1228 31.9516C10.279 31.9649 10.4339 31.9758 10.5912 31.9831L16.8923 25.2772L23.833 31.603C23.9697 31.5655 24.1065 31.5268 24.242 31.482L17.1183 24.9888L22.2802 17.0154L31.7567 18.6312L26.9156 30.2354C27.1028 30.116 27.2863 29.9909 27.4663 29.8602L32.0012 18.9918V17.6605L31.8306 18.2753L22.4195 16.6788L25.2511 6.05979L29.7646 4.40665C29.6883 4.30499 29.6097 4.20454 29.5298 4.1065L25.2006 5.68835L22.8914 0.179119C22.751 0.153703 22.6106 0.129498 22.469 0.110133L24.8634 5.82643L13.9434 10.5841L18.1676 0ZM13.6589 11.1536L13.7077 11.1746L13.7497 11.0694L24.8276 6.23879L22.0454 16.6729L5.19673 20.8028L13.6589 11.1536Z" fill="#E1E8FE"/>
<path d="M4.79513 30.043C6.64213 31.317 8.83275 31.9995 11.0765 32H14.4653C14.2315 30.9856 13.7104 30.06 12.9645 29.3338C12.2185 28.6077 11.2792 28.1118 10.2588 27.9054C9.23846 27.699 8.18024 27.7908 7.21069 28.1698C6.24113 28.5489 5.40127 29.1992 4.7915 30.043H4.79513Z" fill="#80A1FF"/>
<path d="M31.9093 15.269C31.0671 15.2912 30.2674 15.6434 29.6824 16.2497C29.0975 16.856 28.7741 17.6678 28.7821 18.5102C28.79 19.3527 29.1286 20.1582 29.7248 20.7534C30.3211 21.3485 31.1273 21.6856 31.9698 21.692C31.9879 21.4366 32 21.1812 32 20.9234V15.269H31.9093Z" fill="#5EEAD4"/>
<path d="M30.5186 21.3507C30.9688 21.578 31.4666 21.695 31.971 21.692C31.9891 21.4366 32.0012 21.1813 32.0012 20.9235V19.6757C30.6481 19.9613 30.5186 21.3483 30.5186 21.3507Z" fill="#2DD4BF"/>
<path d="M25.1001 8.30014C26.4142 8.30014 27.4796 7.23484 27.4796 5.92072C27.4796 4.6066 26.4142 3.54129 25.1001 3.54129C23.786 3.54129 22.7207 4.6066 22.7207 5.92072C22.7207 7.23484 23.786 8.30014 25.1001 8.30014Z" fill="#5EEAD4"/>
<path d="M22.193 17.7815C22.7224 17.7815 23.1516 17.3524 23.1516 16.823C23.1516 16.2936 22.7224 15.8644 22.193 15.8644C21.6637 15.8644 21.2345 16.2936 21.2345 16.823C21.2345 17.3524 21.6637 17.7815 22.193 17.7815Z" fill="#FECACA"/>
<path d="M16.8823 26.9458C17.9417 26.9458 18.8006 26.087 18.8006 25.0275C18.8006 23.9681 17.9417 23.1092 16.8823 23.1092C15.8228 23.1092 14.964 23.9681 14.964 25.0275C14.964 26.087 15.8228 26.9458 16.8823 26.9458Z" fill="#FECACA"/>
<path d="M25.7356 6.73404C24.6403 6.80545 24.3304 7.56188 24.2566 8.14403C24.5368 8.25162 24.8351 8.30461 25.1353 8.30015C25.7661 8.29091 26.3675 8.03148 26.8071 7.57892C27.2468 7.12636 27.4886 6.51771 27.4796 5.88684C27.4747 5.55184 27.3983 5.22175 27.2557 4.91861C27.269 5.00817 27.4844 6.62027 25.7356 6.73404Z" fill="#2DD4BF"/>
<path d="M4.67896 23.1092C5.77919 23.1092 6.67109 22.2173 6.67109 21.1171C6.67109 20.0169 5.77919 19.125 4.67896 19.125C3.57874 19.125 2.68683 20.0169 2.68683 21.1171C2.68683 22.2173 3.57874 23.1092 4.67896 23.1092Z" fill="#5EEAD4"/>
<path d="M5.21029 21.7973C4.29289 21.8566 4.03389 22.4908 3.97217 22.9785C4.34248 23.1192 4.74634 23.1462 5.13208 23.056C5.51783 22.9659 5.86791 22.7628 6.13757 22.4726C6.40722 22.1824 6.58418 21.8184 6.6458 21.4271C6.70743 21.0358 6.65092 20.635 6.48351 20.2759C6.49441 20.3522 6.67474 21.7029 5.21029 21.7973Z" fill="#2DD4BF"/>
<path d="M18.4061 23.8657C17.3471 24.0351 18.0369 25.3253 16.9949 25.3797C15.8148 25.4402 16.0157 26.7207 16.0182 26.7389C16.4054 26.9352 16.8478 26.9943 17.2729 26.9063C17.698 26.8183 18.0807 26.5886 18.3581 26.2547C18.6356 25.9208 18.7915 25.5026 18.8002 25.0686C18.8089 24.6345 18.6699 24.2104 18.4061 23.8657V23.8657Z" fill="#FCA5A5"/>
<path d="M22.7377 17.065C21.9885 17.3071 22.1325 17.7731 22.1325 17.7755C22.2692 17.7847 22.4062 17.7645 22.5344 17.7161C22.6626 17.6677 22.7788 17.5924 22.8754 17.4952C22.9719 17.398 23.0464 17.2812 23.0938 17.1527C23.1413 17.0242 23.1606 16.887 23.1504 16.7504C23.0585 16.9045 22.9106 17.0173 22.7377 17.065V17.065Z" fill="#FCA5A5"/>
<path d="M13.6072 14.1434C15.3812 14.1434 16.8193 12.7053 16.8193 10.9313C16.8193 9.15732 15.3812 7.71921 13.6072 7.71921C11.8332 7.71921 10.3951 9.15732 10.3951 10.9313C10.3951 12.7053 11.8332 14.1434 13.6072 14.1434Z" fill="#80A1FF"/>
<path d="M14.4363 12.0872C12.3449 11.908 12.1706 13.7973 12.1694 13.7973C12.6623 14.0456 13.2109 14.1627 13.7622 14.1371C14.3135 14.1116 14.8489 13.9443 15.3167 13.6514C15.7845 13.3586 16.1689 12.9501 16.4328 12.4653C16.6966 11.9806 16.831 11.436 16.823 10.8841C16.823 10.8841 16.5301 12.2663 14.4363 12.0872Z" fill="#4B79FE"/>
<path d="M1.12194 11.5849C2.99493 10.7739 4.48987 9.28168 5.30418 7.41015C6.11849 5.53862 6.19136 3.42761 5.50802 1.50439C3.83197 2.47772 2.441 3.87423 1.47435 5.55413C0.507701 7.23404 -0.000715009 9.13839 7.54711e-07 11.0766V11.9746C0.383111 11.8726 0.75812 11.7424 1.12194 11.5849V11.5849Z" fill="#FECACA"/>
<path d="M0 11.0766V11.9722C1.29117 11.6317 2.47639 10.9729 3.44727 10.0562C4.41816 9.13943 5.14373 7.99391 5.55764 6.72437C4.52769 7.51347 3.16611 8.00485 1.36278 7.85598C1.06021 7.83057 0.770951 7.81604 0.493796 7.80878C0.16703 8.86729 0.000587366 9.96876 0 11.0766V11.0766Z" fill="#FCA5A5"/>
</g>
<defs>
<radialGradient id="paint0_radial_33_173" cx="0" cy="0" r="1" gradientUnits="userSpaceOnUse" gradientTransform="translate(0.219063 0.033888) rotate(45) scale(45.1864)">
<stop stop-color="#9920A4"/>
<stop offset="1" stop-color="#9B1AC8"/>
</radialGradient>
<clipPath id="clip0_33_173">
<rect width="32" height="32" fill="white"/>
</clipPath>
</defs>
</svg>

<svg width="32" height="32" viewBox="0 0 32 32" fill="none" xmlns="http://www.w3.org/2000/svg"><g clip-path="url(#a)"><path d="M20.924 0h-9.848A11.074 11.074 0 0 0 0 11.077v9.846A11.079 11.079 0 0 0 11.076 32h9.848A11.078 11.078 0 0 0 32 20.923v-9.846A11.078 11.078 0 0 0 20.924 0Z" fill="url(#b)"/><path fill-rule="evenodd" clip-rule="evenodd" d="M18.168 0h-.391l-4.269 10.69L1.491 5.532c-.062.105-.121.21-.18.318L13.3 11l-8.57 9.776L.146 9.286c-.04.243-.074.485-.097.735l4.393 11.005-4.27 1.847c.026.122.05.243.071.364l4.33-1.872 3.843 10.31c.14.036.28.067.424.096L4.92 21.245l16.874-4.137-5.066 7.818-6.605 7.026c.156.013.31.024.468.031l6.301-6.706 6.941 6.326c.137-.038.274-.076.409-.121l-7.124-6.493 5.162-7.974 9.477 1.616-4.841 11.604c.187-.119.37-.244.55-.375l4.535-10.868V17.66l-.17.615-9.412-1.596 2.832-10.62 4.514-1.652a9.556 9.556 0 0 0-.235-.3L25.2 5.688 22.892.18c-.14-.025-.28-.05-.422-.069l2.394 5.716-10.92 4.758L18.168 0Zm-4.51 11.154.05.02.042-.105 11.078-4.83-2.783 10.434-16.848 4.13 8.462-9.65Z" fill="#E1E8FE"/><path d="M4.795 30.043A11.067 11.067 0 0 0 11.076 32h3.39a5.42 5.42 0 0 0-9.675-1.957h.004Z" fill="#80A1FF"/><path d="M31.91 15.269a3.212 3.212 0 0 0 .06 6.423c.018-.255.03-.51.03-.769V15.27h-.09Z" fill="#5EEAD4"/><path d="M30.519 21.35c.45.228.948.345 1.452.342.018-.255.03-.51.03-.768v-1.248c-1.353.285-1.482 1.672-1.482 1.675Z" fill="#2DD4BF"/><path d="M25.1 8.3a2.38 2.38 0 1 0 0-4.759 2.38 2.38 0 0 0 0 4.76Z" fill="#5EEAD4"/><path d="M22.193 17.782a.959.959 0 1 0 0-1.918.959.959 0 0 0 0 1.918Zm-5.311 9.164a1.918 1.918 0 1 0 0-3.837 1.918 1.918 0 0 0 0 3.837Z" fill="#FECACA"/><path d="M25.736 6.734c-1.096.071-1.406.828-1.48 1.41a2.38 2.38 0 0 0 3-3.225c.013.09.228 1.701-1.52 1.815Z" fill="#2DD4BF"/><path d="M4.679 23.11a1.992 1.992 0 1 0 0-3.985 1.992 1.992 0 0 0 0 3.984Z" fill="#5EEAD4"/><path d="M5.21 21.797c-.917.06-1.176.694-1.238 1.181a1.99 1.99 0 0 0 2.512-2.702c.01.076.19 1.427-1.274 1.521Z" fill="#2DD4BF"/><path d="M18.406 23.866c-1.059.17-.37 1.46-1.411 1.514-1.18.06-.98 1.34-.977 1.359a1.916 1.916 0 0 0 2.388-2.873Zm4.332-6.801c-.75.242-.605.708-.605.71a.956.956 0 0 0 1.017-1.025.696.696 0 0 1-.412.315Z" fill="#FCA5A5"/><path d="M13.607 14.143a3.212 3.212 0 1 0 0-6.424 3.212 3.212 0 0 0 0 6.424Z" fill="#80A1FF"/><path d="M14.436 12.087c-2.091-.179-2.265 1.71-2.267 1.71a3.21 3.21 0 0 0 4.654-2.913s-.293 1.382-2.387 1.203Z" fill="#4B79FE"/><path d="M1.122 11.585a8.049 8.049 0 0 0 4.386-10.08A11.064 11.064 0 0 0 0 11.076v.898a8.014 8.014 0 0 0 1.122-.39Z" fill="#FECACA"/><path d="M0 11.077v.895a7.989 7.989 0 0 0 5.558-5.248c-1.03.79-2.392 1.28-4.195 1.132-.303-.025-.592-.04-.87-.047A11.098 11.098 0 0 0 0 11.077Z" fill="#FCA5A5"/></g><defs><radialGradient id="b" cx="0" cy="0" r="1" gradientUnits="userSpaceOnUse" gradientTransform="rotate(45 .069 .281) scale(45.1864)"><stop stop-color="#9920A4"/><stop offset="1" stop-color="#9B1AC8"/></radialGradient><clipPath id="a"><path fill="#fff" d="M0 0h32v32H0z"/></clipPath></defs></svg>
